assets/home/steam.svg

<svg width="37" height="36" viewBox="0 0 37 36" fill="none" xmlns="http://www.w3.org/2000/svg">
<g clip-path="url(#clip0_46_144)">
<path d="M19.9135 13.2945C19.9135 10.7792 21.9796 8.71313 24.4949 8.71313C27.0101 8.71313 28.9864 10.7792 28.9864 13.2945C28.9864 15.8097 26.9203 17.8757 24.405 17.786C21.8898 17.8757 19.9135 15.8097 19.9135 13.2945ZM24.4949 9.88093C22.6085 9.88093 21.0814 11.408 21.0814 13.2945C21.0814 15.1809 22.6085 16.708 24.405 16.708C26.2915 16.708 27.8185 15.1809 27.8185 13.2945C27.8185 11.408 26.3813 9.88093 24.4949 9.88093Z" fill="#DCDCDC"/>
<path d="M9.67273 26.4994C10.4812 26.8587 11.11 27.1282 11.8286 27.3978C13.5354 28.1163 15.2422 27.1282 15.6913 25.4215C15.9608 24.1639 15.332 22.7265 14.0744 22.1876C13.3558 21.8283 12.5473 21.5588 11.8286 21.2893C13.0862 20.6605 15.5117 21.0198 16.4998 23.0859C17.488 25.0622 16.6795 27.3978 14.7032 28.3858C12.8168 29.1943 10.4812 28.2961 9.67273 26.4994Z" fill="#DCDCDC"/>
<path d="M36.1727 14.7322C35.7235 12.4864 35.0049 10.5101 33.8371 8.62369C30.7829 3.41354 25.0338 0 18.566 0C9.044 0 1.31862 7.27624 0.599976 16.5287C3.74402 17.7864 6.79825 19.1338 9.9423 20.3915C10.122 20.4812 10.3016 20.3915 10.4813 20.3915C11.2898 19.9423 12.1881 19.6728 13.0863 19.6728C13.266 19.6728 13.4457 19.5829 13.5355 19.4033C14.883 17.427 16.2305 15.5406 17.4881 13.5643C17.5778 13.3847 17.6677 13.205 17.6677 13.0254C17.7576 9.52199 20.6321 6.55759 24.0456 6.37794C27.6389 6.19828 30.6931 8.80334 31.1423 12.3067C31.6812 16.2593 28.6269 19.8524 24.5846 20.0321C24.3151 20.0321 24.1355 20.122 23.9558 20.3016C22.0694 21.6491 20.2728 22.9067 18.4761 24.2542C18.2965 24.4338 18.2066 24.5236 18.2066 24.7931C18.1169 27.3084 16.2305 29.4643 13.805 29.7337C11.1999 30.0032 8.86434 28.4761 8.14571 25.9609C8.14571 25.871 7.96604 25.6914 7.87621 25.6015C5.72029 24.7033 3.47454 23.805 1.22879 22.8168C3.38471 30.4524 10.3016 35.9321 18.566 35.9321C25.8422 35.9321 32.1303 31.6202 35.0049 25.4219C35.0049 25.4219 35.0049 25.4219 35.0049 25.3321C36.4422 22.0084 36.8913 18.3253 36.1727 14.7322Z" fill="#DCDCDC"/>
</g>
<defs>
<clipPath id="clip0_46_144">
<rect width="36" height="36" fill="white" transform="translate(0.599976)"/>
</clipPath>
</defs>
</svg>

<svg xmlns="http://www.w3.org/2000/svg" width="37" height="36" fill="none" xmlns:v="https://vecta.io/nano"><g clip-path="url(#A)" fill="#dcdcdc"><path d="M19.914 13.295c0-2.515 2.066-4.581 4.581-4.581s4.491 2.066 4.491 4.581-2.066 4.581-4.581 4.492c-2.515.09-4.492-1.976-4.492-4.492zm4.581-3.414c-1.886 0-3.414 1.527-3.414 3.414s1.527 3.413 3.324 3.413a3.41 3.41 0 0 0 3.413-3.413c0-1.886-1.437-3.414-3.324-3.414zM9.673 26.499l2.156.898c1.707.718 3.414-.27 3.863-1.976.27-1.258-.359-2.695-1.617-3.234-.719-.359-1.527-.629-2.246-.898 1.258-.629 3.683-.27 4.671 1.797.988 1.976.18 4.312-1.797 5.3-1.886.808-4.222-.09-5.03-1.886zm26.5-11.767c-.449-2.246-1.168-4.222-2.336-6.109C30.783 3.414 25.034 0 18.566 0 9.044 0 1.319 7.276.6 16.529l9.342 3.863c.18.09.359 0 .539 0 .809-.449 1.707-.719 2.605-.719.18 0 .359-.09.449-.269l3.953-5.839c.09-.18.18-.359.18-.539.09-3.503 2.964-6.468 6.378-6.647 3.593-.18 6.648 2.425 7.097 5.929.539 3.953-2.515 7.546-6.558 7.725-.269 0-.449.09-.629.27l-5.48 3.953c-.18.18-.269.269-.269.539-.09 2.515-1.976 4.671-4.402 4.941-2.605.27-4.941-1.258-5.659-3.773 0-.09-.18-.269-.269-.359L1.23 22.819c2.156 7.636 9.073 13.115 17.337 13.115 7.276 0 13.564-4.312 16.439-10.51v-.09c1.437-3.324 1.886-7.007 1.168-10.6z"/></g><defs><clipPath id="A"><path fill="#fff" transform="translate(.6)" d="M0 0h36v36H0z"/></clipPath></defs></svg>
